packages/icons/svg/Outline/pantone.svg

<svg fill="none" height="24" viewBox="0 0 24 24" width="24" xmlns="http://www.w3.org/2000/svg"><path clip-rule="evenodd" d="m19 19h-8.486l3.559-3.818h4.927zm-13.99998-1.909v-2.091h3.818v2.091c0 1.053-.856 1.909-1.909 1.909s-1.909-.856-1.909-1.909zm0-9.09094h3.818v-2.99999h-3.818zm0 4.99984h3.818v-2.99997h-3.818zm8.42198-5.4119 2.673 2.493-5.277 5.659v-5.359zm6.578 5.594h-4.063l2.302-2.469c.377-.403.355-1.036-.05-1.413l-4.135-3.857c-.195-.18-.443-.284-.717-.267-.265.009-.516.123-.696.317l-1.823 1.955v-3.448c0-.553-.447-1-1-1h-5.818c-.553 0-1 .447-1 1v13.091c0 2.155 1.754 3.909 3.909 3.909h13.091c.553 0 1-.447 1-1v-5.818c0-.553-.447-1-1-1z" fill="#6b7280" fill-rule="evenodd"/></svg>

<svg width="24" height="24" viewBox="0 0 24 24" fill="none" xmlns="http://www.w3.org/2000/svg">
<g id="Icon/Outline/pantone">
<path id="Mask" fill-rule="evenodd" clip-rule="evenodd" d="M19 19H10.514L14.073 15.182H19V19ZM5 17.091V15H8.818V17.091C8.818 18.144 7.962 19 6.909 19C5.856 19 5 18.144 5 17.091ZM5 8H8.818V5H5V8ZM5 13H8.818V10H5V13ZM13.422 7.588L16.095 10.081L10.818 15.74V10.381L13.422 7.588ZM20 13.182H15.937L18.239 10.713C18.616 10.31 18.594 9.677 18.189 9.3L14.054 5.443C13.859 5.263 13.611 5.159 13.337 5.176C13.072 5.185 12.821 5.299 12.641 5.493L10.818 7.448V4C10.818 3.447 10.371 3 9.818 3H4C3.447 3 3 3.447 3 4V17.091C3 19.246 4.754 21 6.909 21H20C20.553 21 21 20.553 21 20V14.182C21 13.629 20.553 13.182 20 13.182Z" fill="#000000"/>
</g>
</svg>
